src/images/Mobile Store Icons/ios-store-badge.svg

<svg id="livetype" xmlns="http://www.w3.org/2000/svg" width="119.66407" height="40" viewBox="0 0 119.66407 40">
  <title>Download_on_the_App_Store_Badge_US-UK_RGB_blk_4SVG_092917</title>
  <g>
    <g>
      <g>
        <path d="M110.13477,0H9.53468c-.3667,0-.729,0-1.09473.002-.30615.002-.60986.00781-.91895.0127A13.21476,13.21476,0,0,0,5.5171.19141a6.66509,6.66509,0,0,0-1.90088.627A6.43779,6.43779,0,0,0,1.99757,1.99707,6.25844,6.25844,0,0,0,.81935,3.61816a6.60119,6.60119,0,0,0-.625,1.90332,12.993,12.993,0,0,0-.1792,2.002C.00587,7.83008.00489,8.1377,0,8.44434V31.5586c.00489.3105.00587.6113.01515.9219a12.99232,12.99232,0,0,0,.1792,2.0019,6.58756,6.58756,0,0,0,.625,1.9043A6.20778,6.20778,0,0,0,1.99757,38.001a6.27445,6.27445,0,0,0,1.61865,1.1787,6.70082,6.70082,0,0,0,1.90088.6308,13.45514,13.45514,0,0,0,2.0039.1768c.30909.0068.6128.0107.91895.0107C8.80567,40,9.168,40,9.53468,40H110.13477c.3594,0,.7246,0,1.084-.002.3047,0,.6172-.0039.9219-.0107a13.279,13.279,0,0,0,2-.1768,6.80432,6.80432,0,0,0,1.9082-.6308,6.27742,6.27742,0,0,0,1.6172-1.1787,6.39482,6.39482,0,0,0,1.1816-1.6143,6.60413,6.60413,0,0,0,.6191-1.9043,13.50643,13.50643,0,0,0,.1856-2.0019c.0039-.3106.0039-.6114.0039-.9219.0078-.3633.0078-.7246.0078-1.0938V9.53613c0-.36621,0-.72949-.0078-1.09179,0-.30664,0-.61426-.0039-.9209a13.5071,13.5071,0,0,0-.1856-2.002,6.6177,6.6177,0,0,0-.6191-1.90332,6.46619,6.46619,0,0,0-2.7988-2.7998,6.76754,6.76754,0,0,0-1.9082-.627,13.04394,13.04394,0,0,0-2-.17676c-.3047-.00488-.6172-.01074-.9219-.01269-.3594-.002-.7246-.002-1.084-.002Z" style="fill: #a6a6a6"/>
        <path d="M8.44483,39.125c-.30468,0-.602-.0039-.90429-.0107a12.68714,12.68714,0,0,1-1.86914-.1631,5.88381,5.88381,0,0,1-1.65674-.5479,5.40573,5.40573,0,0,1-1.397-1.0166,5.32082,5.32082,0,0,1-1.02051-1.3965,5.72186,5.72186,0,0,1-.543-1.6572,12.41351,12.41351,0,0,1-.1665-1.875c-.00634-.2109-.01464-.9131-.01464-.9131V8.44434S.88185,7.75293.8877,7.5498a12.37039,12.37039,0,0,1,.16553-1.87207,5.7555,5.7555,0,0,1,.54346-1.6621A5.37349,5.37349,0,0,1,2.61183,2.61768,5.56543,5.56543,0,0,1,4.01417,1.59521a5.82309,5.82309,0,0,1,1.65332-.54394A12.58589,12.58589,0,0,1,7.543.88721L8.44532.875H111.21387l.9131.0127a12.38493,12.38493,0,0,1,1.8584.16259,5.93833,5.93833,0,0,1,1.6709.54785,5.59374,5.59374,0,0,1,2.415,2.41993,5.76267,5.76267,0,0,1,.5352,1.64892,12.995,12.995,0,0,1,.1738,1.88721c.0029.2832.0029.5874.0029.89014.0079.375.0079.73193.0079,1.09179V30.4648c0,.3633,0,.7178-.0079,1.0752,0,.3252,0,.6231-.0039.9297a12.73126,12.73126,0,0,1-.1709,1.8535,5.739,5.739,0,0,1-.54,1.67,5.48029,5.48029,0,0,1-1.0156,1.3857,5.4129,5.4129,0,0,1-1.3994,1.0225,5.86168,5.86168,0,0,1-1.668.5498,12.54218,12.54218,0,0,1-1.8692.1631c-.2929.0068-.5996.0107-.8974.0107l-1.084.002Z"/>
      </g>
      <g id="_Group_" data-name="&lt;Group&gt;">
        <g id="_Group_2" data-name="&lt;Group&gt;">
          <g id="_Group_3" data-name="&lt;Group&gt;">
            <path id="_Path_" data-name="&lt;Path&gt;" d="M24.76888,20.30068a4.94881,4.94881,0,0,1,2.35656-4.15206,5.06566,5.06566,0,0,0-3.99116-2.15768c-1.67924-.17626-3.30719,1.00483-4.1629,1.00483-.87227,0-2.18977-.98733-3.6085-.95814a5.31529,5.31529,0,0,0-4.47292,2.72787c-1.934,3.34842-.49141,8.26947,1.3612,10.97608.9269,1.32535,2.01018,2.8058,3.42763,2.7533,1.38706-.05753,1.9051-.88448,3.5794-.88448,1.65876,0,2.14479.88448,3.591.8511,1.48838-.02416,2.42613-1.33124,3.32051-2.66914a10.962,10.962,0,0,0,1.51842-3.09251A4.78205,4.78205,0,0,1,24.76888,20.30068Z" style="fill: #fff"/>
            <path id="_Path_2" data-name="&lt;Path&gt;" d="M22.03725,12.21089a4.87248,4.87248,0,0,0,1.11452-3.49062,4.95746,4.95746,0,0,0-3.20758,1.65961,4.63634,4.63634,0,0,0-1.14371,3.36139A4.09905,4.09905,0,0,0,22.03725,12.21089Z" style="fill: #fff"/>
          </g>
        </g>
        <g>
          <path d="M42.30227,27.13965h-4.7334l-1.13672,3.35645H34.42727l4.4834-12.418h2.083l4.4834,12.418H43.438ZM38.0591,25.59082h3.752l-1.84961-5.44727h-.05176Z" style="fill: #fff"/>
          <path d="M55.15969,25.96973c0,2.81348-1.50586,4.62109-3.77832,4.62109a3.0693,3.0693,0,0,1-2.84863-1.584h-.043v4.48438h-1.8584V21.44238H48.4302v1.50586h.03418a3.21162,3.21162,0,0,1,2.88281-1.60059C53.645,21.34766,55.15969,23.16406,55.15969,25.96973Zm-1.91016,0c0-1.833-.94727-3.03809-2.39258-3.03809-1.41992,0-2.375,1.23047-2.375,3.03809,0,1.82422.95508,3.0459,2.375,3.0459C52.30227,29.01563,53.24953,27.81934,53.24953,25.96973Z" style="fill: #fff"/>
          <path d="M65.12453,25.96973c0,2.81348-1.50586,4.62109-3.77832,4.62109a3.0693,3.0693,0,0,1-2.84863-1.584h-.043v4.48438h-1.8584V21.44238H58.395v1.50586h.03418A3.21162,3.21162,0,0,1,61.312,21.34766C63.60988,21.34766,65.12453,23.16406,65.12453,25.96973Zm-1.91016,0c0-1.833-.94727-3.03809-2.39258-3.03809-1.41992,0-2.375,1.23047-2.375,3.03809,0,1.82422.95508,3.0459,2.375,3.0459C62.26711,29.01563,63.21438,27.81934,63.21438,25.96973Z" style="fill: #fff"/>
          <path d="M71.71047,27.03613c.1377,1.23145,1.334,2.04,2.96875,2.04,1.56641,0,2.69336-.80859,2.69336-1.91895,0-.96387-.67969-1.541-2.28906-1.93652l-1.60937-.3877c-2.28027-.55078-3.33887-1.61719-3.33887-3.34766,0-2.14258,1.86719-3.61426,4.51855-3.61426,2.624,0,4.42285,1.47168,4.4834,3.61426h-1.876c-.1123-1.23926-1.13672-1.9873-2.63379-1.9873s-2.52148.75684-2.52148,1.8584c0,.87793.6543,1.39453,2.25488,1.79l1.36816.33594c2.54785.60254,3.60645,1.626,3.60645,3.44238,0,2.32324-1.85059,3.77832-4.79395,3.77832-2.75391,0-4.61328-1.4209-4.7334-3.667Z" style="fill: #fff"/>
          <path d="M83.34621,19.2998v2.14258h1.72168v1.47168H83.34621v4.99121c0,.77539.34473,1.13672,1.10156,1.13672a5.80752,5.80752,0,0,0,.61133-.043v1.46289a5.10351,5.10351,0,0,1-1.03223.08594c-1.833,0-2.54785-.68848-2.54785-2.44434V22.91406H80.16262V21.44238H81.479V19.2998Z" style="fill: #fff"/>
          <path d="M86.065,25.96973c0-2.84863,1.67773-4.63867,4.29395-4.63867,2.625,0,4.29492,1.79,4.29492,4.63867,0,2.85645-1.66113,4.63867-4.29492,4.63867C87.72609,30.6084,86.065,28.82617,86.065,25.96973Zm6.69531,0c0-1.9541-.89551-3.10742-2.40137-3.10742s-2.40039,1.16211-2.40039,3.10742c0,1.96191.89453,3.10645,2.40039,3.10645S92.76027,27.93164,92.76027,25.96973Z" style="fill: #fff"/>
          <path d="M96.18606,21.44238h1.77246v1.541h.043a2.1594,2.1594,0,0,1,2.17773-1.63574,2.86616,2.86616,0,0,1,.63672.06934v1.73828a2.59794,2.59794,0,0,0-.835-.1123,1.87264,1.87264,0,0,0-1.93652,2.083v5.37012h-1.8584Z" style="fill: #fff"/>
          <path d="M109.3843,27.83691c-.25,1.64355-1.85059,2.77148-3.89844,2.77148-2.63379,0-4.26855-1.76465-4.26855-4.5957,0-2.83984,1.64355-4.68164,4.19043-4.68164,2.50488,0,4.08008,1.7207,4.08008,4.46582v.63672h-6.39453v.1123a2.358,2.358,0,0,0,2.43555,2.56445,2.04834,2.04834,0,0,0,2.09082-1.27344Zm-6.28223-2.70215h4.52637a2.1773,2.1773,0,0,0-2.2207-2.29785A2.292,2.292,0,0,0,103.10207,25.13477Z" style="fill: #fff"/>
        </g>
      </g>
    </g>
    <g id="_Group_4" data-name="&lt;Group&gt;">
      <g>
        <path d="M37.82619,8.731a2.63964,2.63964,0,0,1,2.80762,2.96484c0,1.90625-1.03027,3.002-2.80762,3.002H35.67092V8.731Zm-1.22852,5.123h1.125a1.87588,1.87588,0,0,0,1.96777-2.146,1.881,1.881,0,0,0-1.96777-2.13379h-1.125Z" style="fill: #fff"/>
        <path d="M41.68068,12.44434a2.13323,2.13323,0,1,1,4.24707,0,2.13358,2.13358,0,1,1-4.24707,0Zm3.333,0c0-.97607-.43848-1.54687-1.208-1.54687-.77246,0-1.207.5708-1.207,1.54688,0,.98389.43457,1.55029,1.207,1.55029C44.57522,13.99463,45.01369,13.42432,45.01369,12.44434Z" style="fill: #fff"/>
        <path d="M51.57326,14.69775h-.92187l-.93066-3.31641h-.07031l-.92676,3.31641h-.91309l-1.24121-4.50293h.90137l.80664,3.436h.06641l.92578-3.436h.85254l.92578,3.436h.07031l.80273-3.436h.88867Z" style="fill: #fff"/>
        <path d="M53.85354,10.19482H54.709v.71533h.06641a1.348,1.348,0,0,1,1.34375-.80225,1.46456,1.46456,0,0,1,1.55859,1.6748v2.915h-.88867V12.00586c0-.72363-.31445-1.0835-.97168-1.0835a1.03294,1.03294,0,0,0-1.0752,1.14111v2.63428h-.88867Z" style="fill: #fff"/>
        <path d="M59.09377,8.437h.88867v6.26074h-.88867Z" style="fill: #fff"/>
        <path d="M61.21779,12.44434a2.13346,2.13346,0,1,1,4.24756,0,2.1338,2.1338,0,1,1-4.24756,0Zm3.333,0c0-.97607-.43848-1.54687-1.208-1.54687-.77246,0-1.207.5708-1.207,1.54688,0,.98389.43457,1.55029,1.207,1.55029C64.11232,13.99463,64.5508,13.42432,64.5508,12.44434Z" style="fill: #fff"/>
        <path d="M66.4009,13.42432c0-.81055.60352-1.27783,1.6748-1.34424l1.21973-.07031v-.38867c0-.47559-.31445-.74414-.92187-.74414-.49609,0-.83984.18213-.93848.50049h-.86035c.09082-.77344.81836-1.26953,1.83984-1.26953,1.12891,0,1.76563.562,1.76563,1.51318v3.07666h-.85547v-.63281h-.07031a1.515,1.515,0,0,1-1.35254.707A1.36026,1.36026,0,0,1,66.4009,13.42432Zm2.89453-.38477v-.37646l-1.09961.07031c-.62012.0415-.90137.25244-.90137.64941,0,.40527.35156.64111.835.64111A1.0615,1.0615,0,0,0,69.29543,13.03955Z" style="fill: #fff"/>
        <path d="M71.34816,12.44434c0-1.42285.73145-2.32422,1.86914-2.32422a1.484,1.484,0,0,1,1.38086.79h.06641V8.437h.88867v6.26074h-.85156v-.71143h-.07031a1.56284,1.56284,0,0,1-1.41406.78564C72.0718,14.772,71.34816,13.87061,71.34816,12.44434Zm.918,0c0,.95508.4502,1.52979,1.20313,1.52979.749,0,1.21191-.583,1.21191-1.52588,0-.93848-.46777-1.52979-1.21191-1.52979C72.72121,10.91846,72.26613,11.49707,72.26613,12.44434Z" style="fill: #fff"/>
        <path d="M79.23,12.44434a2.13323,2.13323,0,1,1,4.24707,0,2.13358,2.13358,0,1,1-4.24707,0Zm3.333,0c0-.97607-.43848-1.54687-1.208-1.54687-.77246,0-1.207.5708-1.207,1.54688,0,.98389.43457,1.55029,1.207,1.55029C82.12453,13.99463,82.563,13.42432,82.563,12.44434Z" style="fill: #fff"/>
        <path d="M84.66945,10.19482h.85547v.71533h.06641a1.348,1.348,0,0,1,1.34375-.80225,1.46456,1.46456,0,0,1,1.55859,1.6748v2.915H87.605V12.00586c0-.72363-.31445-1.0835-.97168-1.0835a1.03294,1.03294,0,0,0-1.0752,1.14111v2.63428h-.88867Z" style="fill: #fff"/>
        <path d="M93.51516,9.07373v1.1416h.97559v.74854h-.97559V13.2793c0,.47168.19434.67822.63672.67822a2.96657,2.96657,0,0,0,.33887-.02051v.74023a2.9155,2.9155,0,0,1-.4834.04541c-.98828,0-1.38184-.34766-1.38184-1.21582v-2.543h-.71484v-.74854h.71484V9.07373Z" style="fill: #fff"/>
        <path d="M95.70461,8.437h.88086v2.48145h.07031a1.3856,1.3856,0,0,1,1.373-.80664,1.48339,1.48339,0,0,1,1.55078,1.67871v2.90723H98.69v-2.688c0-.71924-.335-1.0835-.96289-1.0835a1.05194,1.05194,0,0,0-1.13379,1.1416v2.62988h-.88867Z" style="fill: #fff"/>
        <path d="M104.76125,13.48193a1.828,1.828,0,0,1-1.95117,1.30273A2.04531,2.04531,0,0,1,100.73,12.46045a2.07685,2.07685,0,0,1,2.07617-2.35254c1.25293,0,2.00879.856,2.00879,2.27V12.688h-3.17969v.0498a1.1902,1.1902,0,0,0,1.19922,1.29,1.07934,1.07934,0,0,0,1.07129-.5459Zm-3.126-1.45117h2.27441a1.08647,1.08647,0,0,0-1.1084-1.1665A1.15162,1.15162,0,0,0,101.63527,12.03076Z" style="fill: #fff"/>
      </g>
    </g>
  </g>
</svg>

<?xml version="1.0" encoding="UTF-8" standalone="no"?>
<!DOCTYPE svg PUBLIC "-//W3C//DTD SVG 1.1//EN" "http://www.w3.org/Graphics/SVG/1.1/DTD/svg11.dtd">
<svg width="100%" height="100%" viewBox="0 0 499 167" version="1.1" xmlns="http://www.w3.org/2000/svg" xmlns:xlink="http://www.w3.org/1999/xlink" xml:space="preserve" xmlns:serif="http://www.serif.com/" style="fill-rule:evenodd;clip-rule:evenodd;stroke-linejoin:round;stroke-miterlimit:2;">
    <g transform="matrix(1,0,0,1,0,-209)">
        <g id="Ios-Store-Badge" serif:id="Ios Store Badge" transform="matrix(1.59808,0,0,1.0457,-872.55,-13.3631)">
            <rect x="546" y="212.646" width="312" height="159.383" style="fill:none;"/>
            <g transform="matrix(2.6073,0,0,3.98458,546,212.646)">
                <path d="M110.134,0L9.534,0C9.167,0 8.805,0 8.439,0.002C8.133,0.004 7.83,0.01 7.521,0.015C6.855,0.032 6.181,0.073 5.517,0.192C4.847,0.309 4.225,0.509 3.616,0.819C3.017,1.125 2.47,1.524 1.997,1.998C1.519,2.471 1.122,3.02 0.819,3.619C0.508,4.227 0.311,4.852 0.194,5.522C0.073,6.184 0.032,6.854 0.015,7.524C0.005,7.831 0.004,8.138 0,8.445L0,31.559C0.004,31.87 0.005,32.17 0.015,32.481C0.032,33.151 0.073,33.821 0.194,34.483C0.311,35.153 0.508,35.781 0.819,36.387C1.122,36.983 1.519,37.532 1.997,38.001C2.47,38.479 3.017,38.876 3.616,39.18C4.225,39.493 4.847,39.69 5.517,39.811C6.181,39.93 6.855,39.969 7.521,39.988C7.83,39.995 8.133,39.998 8.439,39.998C8.805,40 9.167,40 9.534,40L110.134,40C110.495,40 110.859,40 111.218,39.998C111.524,39.998 111.836,39.995 112.141,39.988C112.811,39.969 113.483,39.93 114.141,39.811C114.811,39.69 115.433,39.493 116.049,39.18C116.646,38.876 117.193,38.479 117.667,38.001C118.142,37.532 118.539,36.983 118.847,36.387C119.154,35.781 119.354,35.153 119.466,34.483C119.59,33.821 119.628,33.151 119.653,32.481C119.656,32.17 119.656,31.87 119.656,31.559C119.664,31.196 119.664,30.834 119.664,30.465L119.664,9.537C119.664,9.17 119.664,8.807 119.656,8.445C119.656,8.138 119.656,7.831 119.653,7.524C119.628,6.854 119.59,6.184 119.466,5.522C119.354,4.852 119.154,4.227 118.847,3.619C118.539,3.02 118.142,2.471 117.667,1.998C117.193,1.524 116.646,1.125 116.049,0.819C115.433,0.509 114.811,0.309 114.141,0.192C113.483,0.073 112.811,0.032 112.141,0.015C111.836,0.01 111.524,0.004 111.218,0.002C110.859,0 110.495,0 110.134,0Z" style="fill:rgb(178,180,182);fill-rule:nonzero;"/>
                <path d="M8.444,39.125C8.14,39.125 7.842,39.122 7.54,39.115C6.981,39.099 6.318,39.068 5.671,38.952C5.061,38.841 4.518,38.662 4.014,38.404C3.493,38.139 3.024,37.797 2.617,37.387C2.203,36.981 1.863,36.514 1.597,35.991C1.337,35.486 1.16,34.944 1.054,34.333C0.932,33.661 0.9,32.978 0.887,32.458C0.881,32.248 0.873,31.545 0.873,31.545L0.873,8.445C0.873,8.445 0.881,7.753 0.887,7.55C0.9,7.026 0.932,6.344 1.053,5.678C1.16,5.064 1.337,4.523 1.596,4.016C1.862,3.492 2.203,3.022 2.611,2.618C3.025,2.204 3.496,1.861 4.014,1.596C4.527,1.335 5.069,1.157 5.667,1.052C6.34,0.931 7.023,0.901 7.542,0.888L8.445,0.875L111.213,0.875L112.126,0.888C112.639,0.901 113.322,0.931 113.985,1.051C114.587,1.156 115.133,1.335 115.656,1.599C116.169,1.861 116.638,2.204 117.047,2.614C117.458,3.021 117.799,3.492 118.071,4.019C118.329,4.53 118.504,5.071 118.607,5.667C118.722,6.298 118.758,6.946 118.78,7.555C118.783,7.838 118.783,8.142 118.783,8.445C118.792,8.82 118.792,9.177 118.792,9.537L118.792,30.465C118.792,30.829 118.792,31.183 118.783,31.54C118.783,31.866 118.783,32.164 118.779,32.47C118.758,33.059 118.722,33.707 118.608,34.324C118.504,34.937 118.329,35.479 118.068,35.994C117.799,36.513 117.456,36.983 117.053,37.379C116.639,37.797 116.17,38.138 115.654,38.402C115.134,38.665 114.605,38.84 113.985,38.952C113.345,39.068 112.682,39.099 112.116,39.115C111.824,39.122 111.516,39.125 111.218,39.125L110.134,39.127L8.444,39.125Z" style="fill-rule:nonzero;"/>
                <path d="M24.769,20.301C24.743,17.55 27.021,16.212 27.125,16.149C25.836,14.269 23.836,14.011 23.134,13.991C21.455,13.815 19.827,14.996 18.971,14.996C18.099,14.996 16.781,14.009 15.362,14.038C13.536,14.066 11.827,15.124 10.89,16.766C8.956,20.114 10.398,25.036 12.251,27.742C13.178,29.068 14.261,30.548 15.678,30.496C17.065,30.438 17.584,29.611 19.258,29.611C20.917,29.611 21.402,30.496 22.849,30.462C24.337,30.438 25.275,29.13 26.169,27.792C27.24,26.273 27.67,24.777 27.688,24.7C27.653,24.688 24.797,23.599 24.769,20.301Z" style="fill:white;fill-rule:nonzero;"/>
                <path d="M22.037,12.211C22.782,11.278 23.293,10.009 23.151,8.721C22.071,8.769 20.721,9.467 19.944,10.38C19.256,11.185 18.641,12.503 18.8,13.742C20.013,13.832 21.258,13.13 22.037,12.211Z" style="fill:white;fill-rule:nonzero;"/>
                <path d="M38.059,25.591L41.811,25.591L39.961,20.144L39.909,20.144L38.059,25.591ZM42.302,27.14L37.568,27.14L36.432,30.497L34.427,30.497L38.91,18.079L40.993,18.079L45.477,30.497L43.438,30.497L42.302,27.14Z" style="fill:white;fill-rule:nonzero;"/>
                <path d="M53.249,25.97C53.249,24.137 52.302,22.932 50.857,22.932C49.437,22.932 48.482,24.163 48.482,25.97C48.482,27.794 49.437,29.016 50.857,29.016C52.302,29.016 53.249,27.82 53.249,25.97ZM55.159,25.97C55.159,28.784 53.653,30.591 51.381,30.591C50.091,30.591 49.066,30.014 48.532,29.007L48.489,29.007L48.489,33.492L46.631,33.492L46.631,21.443L48.43,21.443L48.43,22.949L48.464,22.949C48.981,21.977 50.082,21.348 51.347,21.348C53.645,21.348 55.159,23.165 55.159,25.97Z" style="fill:white;fill-rule:nonzero;"/>
                <path d="M63.214,25.97C63.214,24.137 62.267,22.932 60.821,22.932C59.401,22.932 58.446,24.163 58.446,25.97C58.446,27.794 59.401,29.016 60.821,29.016C62.267,29.016 63.214,27.82 63.214,25.97ZM65.124,25.97C65.124,28.784 63.618,30.591 61.346,30.591C60.056,30.591 59.031,30.014 58.497,29.007L58.454,29.007L58.454,33.492L56.596,33.492L56.596,21.443L58.395,21.443L58.395,22.949L58.429,22.949C58.945,21.977 60.047,21.348 61.312,21.348C63.609,21.348 65.124,23.165 65.124,25.97Z" style="fill:white;fill-rule:nonzero;"/>
                <path d="M71.71,27.037C71.848,28.268 73.044,29.077 74.679,29.077C76.245,29.077 77.372,28.268 77.372,27.158C77.372,26.194 76.692,25.617 75.083,25.221L73.474,24.833C71.193,24.283 70.135,23.216 70.135,21.486C70.135,19.343 72.002,17.872 74.653,17.872C77.277,17.872 79.076,19.343 79.137,21.486L77.261,21.486C77.148,20.247 76.124,19.498 74.627,19.498C73.13,19.498 72.106,20.255 72.106,21.357C72.106,22.235 72.76,22.751 74.36,23.147L75.729,23.483C78.276,24.085 79.335,25.109 79.335,26.925C79.335,29.248 77.484,30.704 74.541,30.704C71.787,30.704 69.928,29.283 69.808,27.037L71.71,27.037Z" style="fill:white;fill-rule:nonzero;"/>
                <path d="M83.346,19.3L83.346,21.443L85.067,21.443L85.067,22.915L83.346,22.915L83.346,27.906C83.346,28.681 83.69,29.042 84.447,29.042C84.637,29.042 84.939,29.016 85.059,28.999L85.059,30.462C84.853,30.514 84.44,30.548 84.026,30.548C82.193,30.548 81.479,29.86 81.479,28.104L81.479,22.915L80.162,22.915L80.162,21.443L81.479,21.443L81.479,19.3L83.346,19.3Z" style="fill:white;fill-rule:nonzero;"/>
                <path d="M92.76,25.97C92.76,24.016 91.864,22.863 90.358,22.863C88.853,22.863 87.958,24.025 87.958,25.97C87.958,27.932 88.853,29.077 90.358,29.077C91.864,29.077 92.76,27.932 92.76,25.97ZM86.065,25.97C86.065,23.122 87.742,21.332 90.358,21.332C92.983,21.332 94.653,23.122 94.653,25.97C94.653,28.827 92.992,30.609 90.358,30.609C87.726,30.609 86.065,28.827 86.065,25.97Z" style="fill:white;fill-rule:nonzero;"/>
                <path d="M96.186,21.443L97.958,21.443L97.958,22.984L98.001,22.984C98.285,21.959 99.111,21.348 100.179,21.348C100.446,21.348 100.669,21.383 100.816,21.417L100.816,23.156C100.669,23.095 100.342,23.043 99.981,23.043C98.784,23.043 98.044,23.853 98.044,25.126L98.044,30.497L96.186,30.497L96.186,21.443Z" style="fill:white;fill-rule:nonzero;"/>
                <path d="M103.102,25.135L107.628,25.135C107.585,23.749 106.699,22.837 105.408,22.837C104.126,22.837 103.197,23.767 103.102,25.135ZM109.384,27.837C109.134,29.481 107.534,30.609 105.486,30.609C102.852,30.609 101.217,28.844 101.217,26.013C101.217,23.173 102.861,21.332 105.408,21.332C107.913,21.332 109.488,23.052 109.488,25.797L109.488,26.434L103.093,26.434L103.093,26.546C103.093,28.095 104.066,29.111 105.529,29.111C106.561,29.111 107.371,28.621 107.62,27.837L109.384,27.837Z" style="fill:white;fill-rule:nonzero;"/>
                <path d="M36.597,13.854L37.722,13.854C38.97,13.854 39.69,13.077 39.69,11.708C39.69,10.36 38.959,9.575 37.722,9.575L36.597,9.575L36.597,13.854ZM37.826,8.731C39.595,8.731 40.633,9.819 40.633,11.696C40.633,13.603 39.603,14.698 37.826,14.698L35.67,14.698L35.67,8.731L37.826,8.731Z" style="fill:white;fill-rule:nonzero;"/>
                <path d="M45.013,12.445C45.013,11.469 44.575,10.898 43.805,10.898C43.033,10.898 42.598,11.469 42.598,12.445C42.598,13.429 43.033,13.995 43.805,13.995C44.575,13.995 45.013,13.425 45.013,12.445ZM41.68,12.445C41.68,10.993 42.491,10.108 43.805,10.108C45.117,10.108 45.927,10.993 45.927,12.445C45.927,13.904 45.121,14.785 43.805,14.785C42.487,14.785 41.68,13.904 41.68,12.445Z" style="fill:white;fill-rule:nonzero;"/>
                <path d="M51.573,14.698L50.651,14.698L49.72,11.382L49.65,11.382L48.723,14.698L47.81,14.698L46.569,10.195L47.47,10.195L48.277,13.631L48.343,13.631L49.269,10.195L50.122,10.195L51.047,13.631L51.118,13.631L51.92,10.195L52.809,10.195L51.573,14.698Z" style="fill:white;fill-rule:nonzero;"/>
                <path d="M53.853,10.195L54.709,10.195L54.709,10.911L54.775,10.911C54.994,10.41 55.441,10.108 56.119,10.108C57.124,10.108 57.677,10.712 57.677,11.783L57.677,14.698L56.789,14.698L56.789,12.006C56.789,11.283 56.474,10.923 55.817,10.923C55.16,10.923 54.742,11.361 54.742,12.064L54.742,14.698L53.853,14.698L53.853,10.195Z" style="fill:white;fill-rule:nonzero;"/>
                <rect x="59.093" y="8.438" width="0.889" height="6.26" style="fill:white;fill-rule:nonzero;"/>
                <path d="M64.55,12.445C64.55,11.469 64.112,10.898 63.342,10.898C62.57,10.898 62.135,11.469 62.135,12.445C62.135,13.429 62.57,13.995 63.342,13.995C64.112,13.995 64.55,13.425 64.55,12.445ZM61.217,12.445C61.217,10.993 62.028,10.108 63.342,10.108C64.654,10.108 65.465,10.993 65.465,12.445C65.465,13.904 64.658,14.785 63.342,14.785C62.024,14.785 61.217,13.904 61.217,12.445Z" style="fill:white;fill-rule:nonzero;"/>
                <path d="M69.295,13.04L69.295,12.664L68.195,12.734C67.575,12.775 67.294,12.986 67.294,13.383C67.294,13.789 67.646,14.024 68.129,14.024C68.799,14.024 69.295,13.598 69.295,13.04ZM66.4,13.425C66.4,12.614 67.004,12.147 68.075,12.081L69.295,12.01L69.295,11.622C69.295,11.146 68.981,10.877 68.373,10.877C67.877,10.877 67.533,11.06 67.435,11.378L66.574,11.378C66.665,10.604 67.393,10.108 68.414,10.108C69.543,10.108 70.18,10.67 70.18,11.622L70.18,14.698L69.324,14.698L69.324,14.065L69.254,14.065C68.985,14.516 68.493,14.772 67.901,14.772C67.033,14.772 66.4,14.248 66.4,13.425Z" style="fill:white;fill-rule:nonzero;"/>
                <path d="M72.266,12.445C72.266,13.4 72.716,13.975 73.469,13.975C74.218,13.975 74.681,13.392 74.681,12.449C74.681,11.51 74.213,10.919 73.469,10.919C72.721,10.919 72.266,11.498 72.266,12.445ZM71.348,12.445C71.348,11.022 72.079,10.121 73.217,10.121C73.833,10.121 74.354,10.414 74.598,10.911L74.664,10.911L74.664,8.438L75.553,8.438L75.553,14.698L74.701,14.698L74.701,13.987L74.631,13.987C74.362,14.479 73.837,14.772 73.217,14.772C72.071,14.772 71.348,13.871 71.348,12.445Z" style="fill:white;fill-rule:nonzero;"/>
                <path d="M82.563,12.445C82.563,11.469 82.124,10.898 81.355,10.898C80.582,10.898 80.148,11.469 80.148,12.445C80.148,13.429 80.582,13.995 81.355,13.995C82.124,13.995 82.563,13.425 82.563,12.445ZM79.23,12.445C79.23,10.993 80.04,10.108 81.355,10.108C82.666,10.108 83.477,10.993 83.477,12.445C83.477,13.904 82.67,14.785 81.355,14.785C80.036,14.785 79.23,13.904 79.23,12.445Z" style="fill:white;fill-rule:nonzero;"/>
                <path d="M84.669,10.195L85.524,10.195L85.524,10.911L85.591,10.911C85.81,10.41 86.257,10.108 86.935,10.108C87.94,10.108 88.493,10.712 88.493,11.783L88.493,14.698L87.605,14.698L87.605,12.006C87.605,11.283 87.29,10.923 86.633,10.923C85.976,10.923 85.558,11.361 85.558,12.064L85.558,14.698L84.669,14.698L84.669,10.195Z" style="fill:white;fill-rule:nonzero;"/>
                <path d="M93.515,9.074L93.515,10.216L94.49,10.216L94.49,10.964L93.515,10.964L93.515,13.28C93.515,13.751 93.709,13.958 94.151,13.958C94.288,13.958 94.366,13.95 94.49,13.937L94.49,14.678C94.346,14.702 94.18,14.723 94.007,14.723C93.019,14.723 92.625,14.375 92.625,13.507L92.625,10.964L91.91,10.964L91.91,10.216L92.625,10.216L92.625,9.074L93.515,9.074Z" style="fill:white;fill-rule:nonzero;"/>
                <path d="M95.704,8.438L96.585,8.438L96.585,10.919L96.655,10.919C96.874,10.414 97.35,10.112 98.028,10.112C98.987,10.112 99.579,10.72 99.579,11.791L99.579,14.698L98.69,14.698L98.69,12.01C98.69,11.291 98.355,10.927 97.727,10.927C96.998,10.927 96.593,11.386 96.593,12.068L96.593,14.698L95.704,14.698L95.704,8.438Z" style="fill:white;fill-rule:nonzero;"/>
                <path d="M101.635,12.031L103.91,12.031C103.889,11.324 103.459,10.865 102.801,10.865C102.144,10.865 101.685,11.328 101.635,12.031ZM104.761,13.482C104.559,14.289 103.839,14.785 102.81,14.785C101.52,14.785 100.73,13.9 100.73,12.461C100.73,11.022 101.537,10.108 102.806,10.108C104.059,10.108 104.815,10.964 104.815,12.378L104.815,12.688L101.635,12.688L101.635,12.738C101.665,13.528 102.124,14.028 102.834,14.028C103.373,14.028 103.741,13.834 103.906,13.482L104.761,13.482Z" style="fill:white;fill-rule:nonzero;"/>
            </g>
        </g>
    </g>
</svg>
